X:59
T:Fan left on shore - Hard
%%VWML:SBG-1-2-720-0
F:http://www.vwml.org/record/SBG/1/2/720
Z:Original Sibelius transcriptions by M. & S. Graebe
M:3/4
I:linebreak $
K:Bb
V:1 treble nm="P1"
V:1
 B | Bc dc Bc | d2 f2 z2 | Bc dc BA | G4 z G | GA BA G^F |$ G2 d2 z2 | ed cB Ac | G4 z d | %9
 de fe dc | d2 f2 z2 | ed cB AB |$ G4 z G | GA BA G^F | G2 d2 z2 | ed cB Ac | G4 z2 | %17

